apps/scalable/parole.svg

<svg xmlns="http://www.w3.org/2000/svg" style="isolation:isolate" width="256" height="256"><defs><filter id="a" width="270.648" height="254.338" x="-7.32" y="2.95" filterUnits="userSpaceOnUse"><feGaussianBlur xmlns="http://www.w3.org/2000/svg" in="SourceGraphic" stdDeviation="4.294"/><feOffset xmlns="http://www.w3.org/2000/svg" dy="4" result="pf_100_offsetBlur"/><feFlood xmlns="http://www.w3.org/2000/svg" flood-opacity=".4"/><feComposite xmlns="http://www.w3.org/2000/svg" in2="pf_100_offsetBlur" operator="in" result="pf_100_dropShadow"/><feBlend xmlns="http://www.w3.org/2000/svg" in="SourceGraphic" in2="pf_100_dropShadow"/></filter></defs><path fill="#4D4D4D" d="M165.685 11.947c74.055 0 84.639 10.557 84.639 84.544v59.251c0 73.986-10.584 84.543-84.639 84.543h-75.37c-74.055 0-84.639-10.557-84.639-84.543V96.491c0-73.987 10.584-84.544 84.639-84.544h75.37z" filter="url(#a)"/><path fill="#CCC" d="M249.841 178.492c-2.724 53.489-18.478 61.793-84.156 61.793h-75.37c-65.463 0-81.329-8.249-84.129-61.268-.376.259 244.005-.119 243.655-.525z"/><g opacity=".4"><linearGradient id="b" x2="0" y1=".5" y2="1.5" gradientTransform="matrix(109.681 0 0 119.008 73.16 35.992)" gradientUnits="userSpaceOnUse"><stop offset="0%" stop-opacity="0"/><stop offset="49.846%"/><stop offset="98.75%" stop-opacity="0"/></linearGradient><path fill="url(#b)" d="M73.16 35.992V155s60.358-24.395 109.68-59.542c0-.009-.006-.019-.013-.031-.005-.013-.013-.026-.021-.039a.22.22 0 0 1-.026-.039.092.092 0 0 1-.012-.038C130.743 59.044 73.16 35.992 73.16 35.992z"/></g><path d="M73.16 35.992V155s60.358-24.395 109.68-59.542c0-.009-.006-.019-.013-.031-.005-.013-.013-.026-.021-.039a.22.22 0 0 1-.026-.039.092.092 0 0 1-.012-.038C130.743 59.044 73.16 35.992 73.16 35.992z" opacity=".1"/><path fill="#E6E6E6" d="M73.16 35v119.008s60.358-24.395 109.68-59.542c0-.01-.006-.018-.013-.033-.005-.014-.013-.024-.021-.039-.01-.013-.02-.025-.026-.038a.088.088 0 0 1-.012-.037C130.743 58.053 73.16 35 73.16 35z"/><path fill="#FFF" d="M73.16 35v.992s57.193 22.889 109.037 58.927c.214-.153.43-.3.643-.453 0-.01-.006-.018-.013-.033-.005-.014-.013-.026-.021-.039-.01-.015-.02-.025-.026-.038a.088.088 0 0 1-.012-.037C130.743 58.053 73.16 35 73.16 35z"/><g><path fill="#7D7D7D" d="M28 191.56h200v22.449H28z"/><path fill="#F22C42" d="M28 191.56h75.51v22.449H28z"/><path d="M28 191.56h200v2.041H28z" opacity=".3"/><path fill="#FFF" d="M28 214.01h200v2.041H28z" opacity=".5"/><path fill="#FFF" d="M103.51 191.56h32.653v22.449H103.51z" opacity=".2"/></g><g opacity=".4"><linearGradient id="c" x1=".517" x2=".517" y2="1"><stop offset="0%" stop-color="#fff"/><stop offset="12.5%" stop-opacity=".098" stop-color="#fff"/><stop offset="92.5%" stop-opacity=".098"/><stop offset="100%" stop-opacity=".498"/></linearGradient><path fill="none" stroke="url(#c)" stroke-linecap="round" stroke-linejoin="round" stroke-width="4.077" d="M165.685 11.947c74.055 0 84.639 10.557 84.639 84.544v59.251c0 73.986-10.584 84.543-84.639 84.543h-75.37c-74.055 0-84.639-10.557-84.639-84.543V96.491c0-73.987 10.584-84.544 84.639-84.544h75.37z" vector-effect="non-scaling-stroke"/></g></svg>

<svg xmlns="http://www.w3.org/2000/svg" style="isolation:isolate" width="256" height="256" viewBox="0 0 256 256">
 <defs>
  <filter id="GDfkpWSAh0iUmvbYELXQikUodsMXkbGO" width="270.648" height="254.338" x="-7.32" y="2.95" filterUnits="userSpaceOnUse">
   <feGaussianBlur xmlns="http://www.w3.org/2000/svg" in="SourceGraphic" stdDeviation="4.294"/>
   <feOffset xmlns="http://www.w3.org/2000/svg" dx="0" dy="4" result="pf_100_offsetBlur"/>
   <feFlood xmlns="http://www.w3.org/2000/svg" flood-opacity=".4"/>
   <feComposite xmlns="http://www.w3.org/2000/svg" in2="pf_100_offsetBlur" operator="in" result="pf_100_dropShadow"/>
   <feBlend xmlns="http://www.w3.org/2000/svg" in="SourceGraphic" in2="pf_100_dropShadow" mode="normal"/>
  </filter>
 </defs>
 <g filter="url(#GDfkpWSAh0iUmvbYELXQikUodsMXkbGO)">
  <path fill="#4D4D4D" d="M 165.685 11.947 C 239.74 11.947 250.324 22.504 250.324 96.491 L 250.324 155.742 C 250.324 229.728 239.74 240.285 165.685 240.285 L 90.315 240.285 C 16.26 240.285 5.676 229.728 5.676 155.742 L 5.676 96.491 C 5.676 22.504 16.26 11.947 90.315 11.947 L 165.685 11.947 Z"/>
 </g>
 <path fill="#CCCCCC" d="M 249.841 178.492 C 247.117 231.981 231.363 240.285 165.685 240.285 L 90.315 240.285 C 24.852 240.285 8.986 232.036 6.186 179.017 C 5.81 179.276 250.191 178.898 249.841 178.492 Z"/>
 <g>
  <g opacity=".4">
   <linearGradient id="_lgradient_292" x1="0" x2="0" y1=".5" y2="1.5" gradientTransform="matrix(109.681,0,0,119.008,73.16,35.992)" gradientUnits="userSpaceOnUse">
    <stop offset="0%" stop-opacity="0" style="stop-color:rgb(0,0,0)"/>
    <stop offset="49.846%" style="stop-color:rgb(0,0,0)"/>
    <stop offset="98.75%" stop-opacity="0" style="stop-color:rgb(0,0,0)"/>
   </linearGradient>
   <path fill="url(#_lgradient_292)" d="M 73.16 35.992 L 73.16 155 C 73.16 155 133.518 130.605 182.84 95.458 C 182.84 95.449 182.834 95.439 182.827 95.427 C 182.822 95.414 182.814 95.401 182.806 95.388 C 182.796 95.375 182.786 95.362 182.78 95.349 C 182.773 95.335 182.768 95.322 182.768 95.311 C 130.743 59.044 73.16 35.992 73.16 35.992 L 73.16 35.992 Z"/>
  </g>
  <g opacity=".1">
   <path d="M 73.16 35.992 L 73.16 155 C 73.16 155 133.518 130.605 182.84 95.458 C 182.84 95.449 182.834 95.439 182.827 95.427 C 182.822 95.414 182.814 95.401 182.806 95.388 C 182.796 95.375 182.786 95.362 182.78 95.349 C 182.773 95.335 182.768 95.322 182.768 95.311 C 130.743 59.044 73.16 35.992 73.16 35.992 L 73.16 35.992 Z"/>
  </g>
  <path fill="#E6E6E6" d="M 73.16 35 L 73.16 154.008 C 73.16 154.008 133.518 129.613 182.84 94.466 C 182.84 94.456 182.834 94.448 182.827 94.433 C 182.822 94.419 182.814 94.409 182.806 94.394 C 182.796 94.381 182.786 94.369 182.78 94.356 C 182.773 94.342 182.768 94.33 182.768 94.319 C 130.743 58.053 73.16 35 73.16 35 L 73.16 35 Z"/>
  <path fill="#FFFFFF" d="M 73.16 35 L 73.16 35.992 C 73.16 35.992 130.353 58.881 182.197 94.919 C 182.411 94.766 182.627 94.619 182.84 94.466 C 182.84 94.456 182.834 94.448 182.827 94.433 C 182.822 94.419 182.814 94.407 182.806 94.394 C 182.796 94.379 182.786 94.369 182.78 94.356 C 182.773 94.342 182.768 94.33 182.768 94.319 C 130.743 58.053 73.16 35 73.16 35 L 73.16 35 Z"/>
 </g>
 <g>
  <rect fill="#7D7D7D" width="200" height="22.449" x="28" y="191.56" transform="matrix(1,0,0,1,0,0)"/>
  <rect fill="#F22C42" width="75.51" height="22.449" x="28" y="191.56" transform="matrix(1,0,0,1,0,0)"/>
  <g opacity=".3">
   <rect width="200" height="2.041" x="28" y="191.56" transform="matrix(1,0,0,1,0,0)"/>
  </g>
  <g opacity=".5">
   <rect fill="#FFFFFF" width="200" height="2.041" x="28" y="214.01" transform="matrix(1,0,0,1,0,0)"/>
  </g>
  <g opacity=".2">
   <rect fill="#FFFFFF" width="32.653" height="22.449" x="103.51" y="191.56" transform="matrix(1,0,0,1,0,0)"/>
  </g>
 </g>
 <g opacity=".4">
  <linearGradient id="_lgradient_293" x1=".517" x2=".517" y1="0" y2="1">
   <stop offset="0%" style="stop-color:rgb(255,255,255)"/>
   <stop offset="12.5%" stop-opacity=".098" style="stop-color:rgb(255,255,255)"/>
   <stop offset="92.5%" stop-opacity=".098" style="stop-color:rgb(0,0,0)"/>
   <stop offset="100%" stop-opacity=".498" style="stop-color:rgb(0,0,0)"/>
  </linearGradient>
  <path fill="none" stroke="url(#_lgradient_293)" stroke-linecap="round" stroke-linejoin="round" stroke-width="4.077" d="M 165.685 11.947 C 239.74 11.947 250.324 22.504 250.324 96.491 L 250.324 155.742 C 250.324 229.728 239.74 240.285 165.685 240.285 L 90.315 240.285 C 16.26 240.285 5.676 229.728 5.676 155.742 L 5.676 96.491 C 5.676 22.504 16.26 11.947 90.315 11.947 L 165.685 11.947 Z" vector-effect="non-scaling-stroke"/>
 </g>
</svg>
